X:345
T:Hyde Park
C:John Playford, 1651
S:Colin Hume's website,  colinhume.com  - chords can also be printed below the stave.
Q:3/8=110
M:6/8
L:1/8
%%MIDI ratio 3 1
K:D
P:A
"D"fga afd | "D"fga "A/C#"e2d | "Bm"fef "G"gaf/g/ | "A7"ae>d "D"d3 |\
"D"fga afd | "D"fga "A/C#"e2d | "Bm"fef "G"gaf/g/ | "A7"ae>d "D"d3 |
P:B
|: "A"e>fe ecA | "A"ABc cde | "Bm"def fga | "D"aga f>ed |\
"Em"efg g>ag | "A"efg e>dc | "Bm"dde "G"ffg | "A7"ae>d "D"d3 :|

